packages/ui/assets/svg/dai.svg

<svg class="icon-size" viewBox="0 0 35 35" fill="none" xmlns="http://www.w3.org/2000/svg">
<path d="M17.5 0C27.1659 0 35 7.8357 35 17.5C35 27.1659 27.1659 35 17.5 35C7.8357 35 0 27.1651 0 17.5C0 7.8357 7.8357 0 17.5 0Z" fill="#F5AC37"/>
<path class="reverse-fill" d="M18.145 18.7356H24.7947C24.9364 18.7356 25.0034 18.7356 25.0136 18.5497C25.068 17.8733 25.068 17.1929 25.0136 16.5156C25.0136 16.3841 24.9482 16.3298 24.8057 16.3298H11.5716C11.4078 16.3298 11.3637 16.3841 11.3637 16.5377V18.4844C11.3637 18.7356 11.3637 18.7356 11.626 18.7356H18.145V18.7356ZM24.271 14.0546C24.2899 14.005 24.2899 13.9507 24.271 13.9019C24.16 13.6601 24.0284 13.4294 23.8757 13.2128C23.6457 12.8427 23.3748 12.5017 23.0661 12.1953C22.9204 12.0103 22.7519 11.8441 22.5629 11.7031C21.6163 10.8975 20.491 10.3274 19.2813 10.0407C18.671 9.90369 18.0473 9.83833 17.422 9.84384H11.5488C11.385 9.84384 11.3629 9.9092 11.3629 10.0517V13.9342C11.3629 14.098 11.3629 14.1421 11.5709 14.1421H24.1922C24.1922 14.1421 24.3017 14.12 24.3238 14.0546H24.2702H24.271ZM24.271 21.0107C24.0851 20.9902 23.8977 20.9902 23.7119 21.0107H11.5827C11.4189 21.0107 11.3637 21.0107 11.3637 21.2296V25.0254C11.3637 25.2002 11.3637 25.2443 11.5827 25.2443H17.1826C17.4504 25.2648 17.7181 25.2459 17.9804 25.19C18.7931 25.1317 19.5924 24.9553 20.3547 24.6647C20.6319 24.5687 20.8997 24.4434 21.1525 24.293H21.2288C22.5416 23.6103 23.6079 22.5377 24.2804 21.221C24.2804 21.221 24.3568 21.0556 24.271 21.0123V21.0107ZM9.1658 27.2123V27.147V24.5986V23.7347V21.1643C9.1658 21.0217 9.1658 21.0005 8.99098 21.0005H6.61743C6.48591 21.0005 6.43158 21.0005 6.43158 20.8256V18.7474H8.96893C9.11068 18.7474 9.1658 18.7474 9.1658 18.5616V16.5054C9.1658 16.3739 9.1658 16.3416 8.99098 16.3416H6.61743C6.48591 16.3416 6.43158 16.3416 6.43158 16.1667V14.2421C6.43158 14.1216 6.43158 14.0893 6.6064 14.0893H8.9579C9.1217 14.0893 9.1658 14.0893 9.1658 13.8814V7.98611C9.1658 7.81128 9.1658 7.76718 9.38473 7.76718H17.5874C18.1828 7.79081 18.7742 7.85617 19.3593 7.96406C20.565 8.18692 21.7234 8.61769 22.7826 9.23273C23.4851 9.64618 24.1316 10.1455 24.7073 10.7203C25.1404 11.17 25.531 11.6567 25.8775 12.1749C26.2216 12.7001 26.5075 13.2616 26.732 13.8483C26.7595 14.0011 26.906 14.1043 27.0588 14.0783H29.0165C29.2677 14.0783 29.2677 14.0783 29.2788 14.3192V16.1132C29.2788 16.288 29.2134 16.3321 29.0378 16.3321H27.5281C27.3753 16.3321 27.3313 16.3321 27.3423 16.529C27.4021 17.1952 27.4021 17.8638 27.3423 18.5301C27.3423 18.7159 27.3423 18.738 27.551 18.738H29.278C29.3544 18.8364 29.278 18.9348 29.278 19.0341C29.289 19.1608 29.289 19.2892 29.278 19.416V20.7398C29.278 20.9256 29.2236 20.9808 29.059 20.9808H26.9918C26.8477 20.9532 26.7075 21.0454 26.6745 21.1887C26.1823 22.4684 25.3948 23.6158 24.3773 24.5356C24.0056 24.8703 23.615 25.1853 23.2071 25.4759C22.7692 25.7279 22.3432 25.9901 21.8943 26.198C21.0682 26.5697 20.2019 26.8438 19.3128 27.0178C18.4686 27.169 17.6126 27.2375 16.7534 27.2257H9.16265V27.2147L9.1658 27.2123Z" fill="#FEFEFD"/>
</svg>

<svg class="icon-size" viewBox="0 0 35 35" fill="none" xmlns="http://www.w3.org/2000/svg"><path d="M17.5 0C27.166 0 35 7.836 35 17.5 35 27.166 27.166 35 17.5 35 7.836 35 0 27.165 0 17.5 0 7.836 7.836 0 17.5 0Z" fill="#F5AC37"/><path class="reverse-fill" d="M18.145 18.736h6.65c.141 0 .208 0 .219-.186.054-.677.054-1.357 0-2.034 0-.132-.066-.186-.208-.186H11.572c-.164 0-.208.054-.208.208v1.946c0 .252 0 .252.262.252h6.519Zm6.126-4.681a.213.213 0 0 0 0-.153 4.328 4.328 0 0 0-.395-.69c-.23-.37-.501-.71-.81-1.017a2.687 2.687 0 0 0-.503-.492 7.862 7.862 0 0 0-3.282-1.662 8.158 8.158 0 0 0-1.859-.197h-5.873c-.164 0-.186.065-.186.208v3.882c0 .164 0 .208.208.208h12.621s.11-.022.132-.087h-.054.001Zm0 6.956a2.55 2.55 0 0 0-.56 0H11.584c-.164 0-.22 0-.22.219v3.795c0 .175 0 .22.22.22h5.6c.267.02.535 0 .797-.055a8.337 8.337 0 0 0 2.375-.525c.277-.096.545-.222.797-.372h.077a7.105 7.105 0 0 0 3.051-3.072s.077-.165-.009-.209v-.001ZM9.166 27.212v-6.047c0-.143 0-.165-.175-.165H6.617c-.131 0-.185 0-.185-.174v-2.079h2.537c.142 0 .197 0 .197-.185v-2.057c0-.131 0-.163-.175-.163H6.617c-.131 0-.185 0-.185-.175v-1.925c0-.12 0-.153.174-.153h2.352c.164 0 .208 0 .208-.208V7.986c0-.175 0-.219.219-.219h8.202c.596.024 1.187.09 1.772.197a10.69 10.69 0 0 1 3.424 1.269 9.65 9.65 0 0 1 1.924 1.487c.433.45.824.937 1.17 1.455.345.525.63 1.087.855 1.673a.285.285 0 0 0 .327.23h1.957c.252 0 .252 0 .263.241v1.794c0 .175-.066.22-.241.22h-1.51c-.153 0-.197 0-.186.196.06.666.06 1.335 0 2.001 0 .186 0 .208.209.208h1.727c.076.098 0 .197 0 .296.011.127.011.255 0 .382v1.324c0 .186-.054.24-.219.24h-2.067a.274.274 0 0 0-.318.209 8.746 8.746 0 0 1-2.297 3.347c-.371.334-.762.65-1.17.94-.438.252-.864.514-1.313.722-.826.372-1.692.646-2.581.82-.844.151-1.7.22-2.56.208h-7.59v-.011l.003-.003Z" fill="#FEFEFD"/></svg>
